X: 14
P: Brurmarsj fra Lom
O: Hans Brimi
Z: John Chambers <jc@trillian.mit.edu>
M: 2/4
L: 1/16
K: G
|: "G"D2G2   B2G2 |    D2G2    B2G2 | "D7"A2B2    c2B2 | A8 \
|  "G"G2B2   d2B2 | "C"G2g2    e2c2 |  "G"B4  "D7"AFAF | "G"G8 :|
|: "G"defg   d4   | "C"e2c2 "G"B4   |     G2B2    d2g2 | "C"e2c2 "Am"A4- A2cB \
| "D7"A3G    FGAF | "G"G2B2    d2g2 | "A7"f2ed   ^cdef | "D7"d8 :|
[| "G"defg   d4   | "C"e2c2 "G"B4 "D7"AFAF | "G"G2g2 "C"e2c2 \
|  "G"B4 "D7"AFAF | "G"G2g2 "C"e2c2 |  "G"B4  "D7"AFAF | "G"G8 |]
